src/assets/images/design.svg

<svg width="69" height="68" viewBox="0 0 69 68" fill="none" xmlns="http://www.w3.org/2000/svg">
<path d="M33.499 35.7041C33.5027 36.1478 33.4979 36.7944 33.4629 37.5986C33.3928 39.2078 33.2022 41.4461 32.7227 43.96C31.7613 49 29.6484 55.0868 25.0693 59.459C20.4849 63.8362 14.2483 65.8515 9.11328 66.7656C6.55197 67.2215 4.2796 67.4006 2.64844 67.4658C1.8332 67.4984 1.17856 67.5031 0.729492 67.499C0.647704 67.4983 0.572766 67.4953 0.504883 67.4941C0.503843 67.4354 0.501668 67.371 0.500977 67.3018C0.49671 66.8738 0.501213 66.25 0.535156 65.4727C0.603109 63.9166 0.790045 61.7483 1.2666 59.3047C2.22167 54.4075 4.3287 48.4572 8.91016 44.0801C13.4962 39.6987 19.744 37.5457 24.8877 36.4932C27.4534 35.9682 29.7299 35.7194 31.3643 35.6025C32.1811 35.5441 32.837 35.5188 33.2871 35.5078C33.3622 35.506 33.4317 35.505 33.4951 35.5039C33.4961 35.5651 33.4984 35.6319 33.499 35.7041Z" stroke="#B2282F"/>
<path d="M0.711914 0.508789C1.16144 0.520378 1.81671 0.547506 2.63281 0.609375C4.26603 0.733207 6.54205 0.996186 9.10645 1.55273C14.246 2.6682 20.492 4.95064 25.0811 9.59863C29.6664 14.2458 31.7761 20.5651 32.7324 25.7666C33.2095 28.3616 33.3968 30.6638 33.4648 32.3164C33.4988 33.1422 33.5033 33.8049 33.499 34.2598C33.4982 34.3453 33.4954 34.4236 33.4941 34.4941C33.4263 34.4954 33.3513 34.4982 33.2695 34.499C32.8209 34.5034 32.1672 34.4991 31.3525 34.4648C29.7222 34.3962 27.4506 34.2065 24.8906 33.7236C19.7594 32.7557 13.5241 30.619 8.93945 25.9727C4.35639 21.3305 2.23984 14.8664 1.27734 9.51367C0.797318 6.84404 0.607226 4.46669 0.537109 2.75781C0.502076 1.90384 0.497282 1.21749 0.500977 0.746094C0.501667 0.658083 0.503726 0.577588 0.504883 0.504883C0.568061 0.506043 0.637146 0.506862 0.711914 0.508789Z" stroke="#B2282F"/>
<path d="M34.7344 35.5078C35.198 35.5188 35.8736 35.5441 36.7148 35.6025C38.3981 35.7194 40.7431 35.9679 43.3857 36.4932C48.6836 37.5463 55.1192 39.7012 59.8447 44.085C64.5611 48.4629 66.7284 54.4128 67.7109 59.3076C68.2012 61.7503 68.394 63.9173 68.4639 65.4727C68.4988 66.25 68.5034 66.874 68.499 67.3018C68.4983 67.3711 68.4952 67.4353 68.4941 67.4941C68.4206 67.4954 68.3388 67.4982 68.249 67.499C67.7862 67.5032 67.1114 67.4992 66.2715 67.4668C64.5911 67.402 62.2506 67.2224 59.6123 66.7666C54.3223 65.8526 47.8979 63.8355 43.1768 59.4531C38.4629 55.0802 36.2888 48.9947 35.2998 43.957C34.8064 41.4439 34.6102 39.2063 34.5381 37.5977C34.5021 36.7937 34.4972 36.1475 34.501 35.7041C34.5016 35.6319 34.5029 35.5651 34.5039 35.5039C34.5736 35.505 34.6505 35.5058 34.7344 35.5078Z" stroke="#B2282F"/>
<path d="M68.499 0.746094C68.5028 1.21734 68.498 1.90395 68.4619 2.75781C68.3897 4.46622 68.1932 6.84285 67.6992 9.51172C66.7088 14.8621 64.5318 21.3252 59.8135 25.9678H59.8125C55.0906 30.6164 48.6685 32.754 43.3828 33.7227C40.7458 34.2059 38.406 34.3961 36.7266 34.4648C35.8876 34.4992 35.2142 34.5034 34.752 34.499C34.6615 34.4982 34.5788 34.4945 34.5049 34.4932C34.5036 34.4229 34.5018 34.3449 34.501 34.2598C34.4966 33.8052 34.5012 33.1428 34.5361 32.3174C34.6061 30.6654 34.7991 28.3637 35.29 25.7695C36.274 20.5702 38.445 14.2513 43.166 9.60352C47.8924 4.95323 54.3261 2.66886 59.6201 1.55273C62.2614 0.995892 64.6049 0.73328 66.2871 0.609375C67.1277 0.547461 67.8024 0.520396 68.2656 0.508789C68.3485 0.506713 68.4251 0.506079 68.4941 0.504883C68.4953 0.577583 68.4983 0.658068 68.499 0.746094Z" stroke="#B2282F"/>
</svg>

<svg xmlns="http://www.w3.org/2000/svg" width="69" height="68" fill="none"><path stroke="#B2282F" d="M33.499 35.704c.004.444-.001 1.09-.036 1.895a45 45 0 0 1-.74 6.361c-.962 5.04-3.075 11.127-7.654 15.499-4.584 4.377-10.82 6.392-15.956 7.307a48 48 0 0 1-6.465.7c-.815.032-1.47.037-1.919.033q-.122-.002-.224-.005L.5 67.302c-.004-.428 0-1.052.034-1.83.068-1.555.255-3.724.732-6.167.955-4.898 3.062-10.848 7.643-15.225 4.586-4.381 10.834-6.534 15.978-7.587a51 51 0 0 1 6.476-.89 41 41 0 0 1 1.923-.095l.208-.004zM.712.509c.45.011 1.105.039 1.92.1 1.634.124 3.91.387 6.474.944 5.14 1.115 11.386 3.398 15.975 8.046 4.585 4.647 6.695 10.966 7.651 16.168.477 2.595.665 4.897.733 6.55.034.825.038 1.488.034 1.943q-.002.128-.005.234l-.224.005c-.45.004-1.103 0-1.918-.034a46 46 0 0 1-6.461-.741c-5.132-.968-11.367-3.105-15.952-7.751-4.583-4.642-6.7-11.107-7.662-16.46-.48-2.669-.67-5.046-.74-6.755C.502 1.904.497 1.218.501.746Q.502.614.505.505zM34.734 35.508c.464.01 1.14.036 1.98.094 1.684.117 4.03.366 6.672.891 5.298 1.053 11.733 3.208 16.459 7.592 4.716 4.378 6.883 10.328 7.866 15.223.49 2.442.683 4.61.753 6.165.035.777.04 1.401.035 1.829q-.002.104-.005.192l-.245.005c-.463.004-1.138 0-1.977-.032a51 51 0 0 1-6.66-.7c-5.29-.914-11.714-2.931-16.435-7.314-4.714-4.373-6.888-10.458-7.877-15.496a43.5 43.5 0 0 1-.762-6.36c-.036-.803-.04-1.45-.037-1.893q0-.108.003-.2zM68.499.746c.004.471-.001 1.158-.037 2.012a49 49 0 0 1-.763 6.754c-.99 5.35-3.167 11.813-7.885 16.456h-.002c-4.721 4.648-11.143 6.786-16.43 7.755a48 48 0 0 1-6.655.742c-.84.034-1.513.038-1.975.034-.09 0-.173-.005-.247-.006l-.004-.233c-.004-.455 0-1.117.035-1.943.07-1.652.263-3.953.754-6.547.984-5.2 3.155-11.519 7.876-16.166 4.726-4.65 11.16-6.935 16.454-8.051a51 51 0 0 1 6.667-.944c.84-.062 1.515-.089 1.979-.1l.228-.004z"/></svg>
